icons-rebrand/svg/active-speaker-regular.svg

<svg width="32" height="32" viewBox="0 0 32 32" fill="none" xmlns="http://www.w3.org/2000/svg">
<path d="M12.1579 12.964C11.7816 12.0395 11.2317 11.1956 10.5379 10.478C10.4696 10.4066 10.3878 10.3494 10.2973 10.3097C10.2068 10.27 10.1093 10.2486 10.0105 10.2467C9.9117 10.2448 9.81348 10.2624 9.7215 10.2986C9.62953 10.3348 9.54562 10.3888 9.47459 10.4575C9.40356 10.5263 9.34681 10.6083 9.30761 10.6991C9.26841 10.7898 9.24753 10.8874 9.24616 10.9862C9.2448 11.085 9.26299 11.1832 9.29968 11.2749C9.33636 11.3667 9.39083 11.4503 9.45994 11.521C10.0209 12.1012 10.4656 12.7835 10.7699 13.531C11.4107 15.1143 11.4107 16.8847 10.7699 18.468C10.4659 19.2156 10.0212 19.898 9.45994 20.478C9.32163 20.6211 9.24582 20.8132 9.2492 21.0122C9.25258 21.2112 9.33485 21.4007 9.47794 21.539C9.62102 21.6773 9.81319 21.7531 10.0122 21.7497C10.2111 21.7463 10.4006 21.6641 10.5389 21.521C11.2326 20.8038 11.7822 19.9602 12.1579 19.036C12.9468 17.0889 12.9468 14.9111 12.1579 12.964ZM21.3499 9.09999C20.4529 6.99268 19.1552 5.0796 17.5289 3.46699C17.3877 3.32655 17.1965 3.24798 16.9973 3.24854C16.7982 3.2491 16.6074 3.32876 16.4669 3.46999C16.3265 3.61121 16.2479 3.80244 16.2485 4.00161C16.2491 4.20077 16.3287 4.39155 16.4699 4.53199C17.9594 6.00741 19.1475 7.75863 19.9679 9.68799C20.8134 11.685 21.2491 13.8314 21.2491 16C21.2491 18.1686 20.8134 20.315 19.9679 22.312C19.1474 24.2407 17.9597 25.9915 16.4709 27.467C16.3297 27.6072 16.2499 27.7977 16.2492 27.9967C16.2484 28.1956 16.3268 28.3868 16.4669 28.528C16.6071 28.6692 16.7976 28.749 16.9966 28.7497C17.1956 28.7505 17.3867 28.6722 17.5279 28.532C19.1549 26.9199 20.4527 25.0067 21.3489 22.899C22.2731 20.7162 22.7494 18.3699 22.7494 15.9995C22.7494 13.6291 22.2731 11.2828 21.3489 9.09999H21.3499Z" fill="#0F0F0F"/>
<path d="M17.7499 15.9999C17.7539 14.2088 17.4172 12.4332 16.7579 10.7679C16.3052 9.62738 15.7015 8.55278 14.9629 7.57291C14.677 7.19462 14.3712 6.83178 14.0469 6.48591C13.9808 6.40895 13.8998 6.34618 13.8088 6.30137C13.7178 6.25657 13.6187 6.23066 13.5174 6.22521C13.4162 6.21976 13.3148 6.23488 13.2195 6.26966C13.1243 6.30444 13.037 6.35816 12.9631 6.42758C12.8891 6.497 12.83 6.58068 12.7893 6.67357C12.7485 6.76647 12.7271 6.86664 12.7261 6.96807C12.7252 7.06949 12.7448 7.17006 12.7837 7.2637C12.8227 7.35734 12.8802 7.44211 12.9529 7.51291C13.9875 8.62076 14.8053 9.91274 15.3639 11.3219C16.5448 14.3281 16.5448 17.6697 15.3639 20.6759C14.9634 21.6877 14.4289 22.6412 13.7749 23.5109C13.5199 23.8509 13.2449 24.1759 12.9539 24.4849C12.8173 24.6296 12.7438 24.8226 12.7495 25.0215C12.7552 25.2204 12.8397 25.4088 12.9844 25.5454C13.1291 25.682 13.3221 25.7555 13.5209 25.7498C13.7198 25.7441 13.9083 25.6596 14.0449 25.5149C14.3749 25.1649 14.6849 24.7969 14.9749 24.4129C15.7085 23.4362 16.3081 22.3657 16.7579 21.2299C17.4179 19.5649 17.7539 17.7899 17.7499 15.9999Z" fill="#0F0F0F"/>
</svg>

<svg width="32" height="32" viewBox="0 0 32 32" fill="none" xmlns="http://www.w3.org/2000/svg"><path d="M12.158 12.964a7.818 7.818 0 0 0-1.62-2.486.75.75 0 1 0-1.078 1.043 6.323 6.323 0 0 1 1.31 2.01 6.58 6.58 0 0 1 0 4.937 6.306 6.306 0 0 1-1.31 2.01.75.75 0 0 0 1.079 1.043 7.8 7.8 0 0 0 1.619-2.485 8.085 8.085 0 0 0 0-6.072zM21.35 9.1a17.69 17.69 0 0 0-3.821-5.633.75.75 0 0 0-1.059 1.065 16.156 16.156 0 0 1 3.498 5.156 16.19 16.19 0 0 1 0 12.624 16.17 16.17 0 0 1-3.497 5.155.75.75 0 1 0 1.057 1.065 17.657 17.657 0 0 0 3.821-5.633 17.696 17.696 0 0 0 0-13.799z" fill="#0F0F0F"/><path d="M17.75 16a14.126 14.126 0 0 0-.992-5.232 13.71 13.71 0 0 0-1.795-3.195 13.4 13.4 0 0 0-.916-1.087.751.751 0 1 0-1.094 1.027 12.129 12.129 0 0 1 2.411 3.809 12.792 12.792 0 0 1 0 9.354 12.168 12.168 0 0 1-1.589 2.835c-.255.34-.53.665-.821.974a.75.75 0 0 0 1.091 1.03c.33-.35.64-.718.93-1.102a13.698 13.698 0 0 0 1.783-3.183c.66-1.665.996-3.44.992-5.23z" fill="#0F0F0F"/></svg>
